X:1
T: The Auld Cliff Hoose
C:
R:Strathspey
Q:128
K:A
M:4/4
L:1/16
|:E2|A3B c3d ea3 e3c|((3d2f2e2) ((3d2c2B2) ((3A2G2F2) ((3E2F2G2)|A3B c3d ea3 f3d|ce3 B3d cA3 A2E2|
A3B c3d ea3 e3c|((3d2f2e2) ((3d2c2B2) ((3A2G2F2) ((3E2F2G2)|A3B c3d ea3 f3d|ce3 B3d cA3 A2e2|
a3g a3e ca3 e3c|d3c B3A GA3 B3e|a3g a3e ca3 f3d|ce3 A3d cA3 A2e2|
((3a2g2a2) ((3f2g2a2) ((3e2c2a2) ((3e2d2c2)|((3d2f2d2) ((3c2e2c2) dB3 B3c|A3B c3d ea3 f3d|ce3 B3d cA3 A2:|
